!!!COM: Anonymous
!!!CDT: [?]
!!!OTL@@POL: Witaj Jezu ukochany
!!!TXO: Polish
!!!ODT: 
!!!GTL: Hymnbook E
!!!ARL: Opactwo św. Wojciecha, Staniątki 
!!!voices:	3
**kern	**text	**kern	**text	**kern	**text
*staff3	*staff3	*staff2	*staff2	*staff1	*staff1
*I"Basso	*	*I"Canto II	*	*I"Canto I	*
=1-	=1-	=1-	=1-	=1-	=1-
*clefF4	*	*clefG2	*	*clefG2	*
*k[b-]	*	*k[b-]	*	*k[b-]	*
*met(c|)	*	*met(c|)	*	*met(c|)	*
*M2/2	*	*M2/2	*	*M2/2	*
2G\	Wi-	2b-\	Wi-	2dd\	Wi-
2G\	-taj	2b-\	-taj	2dd\	-taj
=2	=2	=2	=2	=2	=2
1G	Je-	1g	Je-	1b-	Je-
=3	=3	=3	=3	=3	=3
1D	-zu	1f#	-zu	1a	-zu
=4	=4	=4	=4	=4	=4
2G\	u-	2g/	u-	2b-\	u-
2G\	-ko-	2g/	-ko-	2b-\	-ko-
=5	=5	=5	=5	=5	=5
1F	-cha-	1a	-cha-	1cc	-cha-
=6	=6	=6	=6	=6	=6
1BB-	-ny	1b-	-ny	1dd	-ny
=7	=7	=7	=7	=7	=7
2GG/	Na	2dd\	Na	2b-\	Na
2GG/	zba-	2dd\	zba-	2b-\	zba-
=8	=8	=8	=8	=8	=8
1GG	-wie-	1b-	-wie-	1b-	-wie-
=9	=9	=9	=9	=9	=9
1D	-nie	1a	-nie	1cc	-nie
=10	=10	=10	=10	=10	=10
2G\	na-	2b-\	na-	2dd\	na-
2E-\	.	4a/	-sze	4cc\	-sze
.	.	4g/	.	4b-\	.
=11	=11	=11	=11	=11	=11
1F	da-	1a	da-	1cc	da-
=12	=12	=12	=12	=12	=12
1BB-	-ny	1b-	-ny	1b-	-ny
=13	=13	=13	=13	=13	=13
4GG/	Wi-	4g/	Wi-	4b-\	Wi-
4GG/	-taj	4g/	-taj	4b-\	-taj
4FF/	mi-	4a/	mi-	4cc\	mi-
4FF/	-łe	4a/	-łe	4cc\	-łe
=14	=14	=14	=14	=14	=14
4BB-/	dzie-	4b-\	dzie-	4dd\	dzie-
4BB-/	-cią-	4b-\	-cią-	4dd\	-cią-
4FF/	-te-	4a/	-te-	4cc\	-te-
4FF/	-czko	4a/	-czko	4cc\	-czko
=15	=15	=15	=15	=15	=15
!!linebreak:original
4G\	wi-	4g/	wi-	4b-\	wi-
4G\	-taj	4g/	-taj	4b-\	-taj
4F\	wdzię-	4a/	wdzię-	4cc\	wdzię-
4F\	-czne	4a/	-czne	4cc\	-czne
=16	=16	=16	=16	=16	=16
8BB-/L	pa-	4b-\	pa-	4dd\	pa-
8C/J	.	.	.	.	.
8D\L	-nią-	4b-\	-nią-	4dd\	-nią-
8E\J	.	.	.	.	.
4F\	-te-	4a/	-te-	4cc\	-te-
4F\	-czko	4a/	-czko	4cc\	-czko
=17	=17	=17	=17	=17	=17
2G\	pa-	2g/	pa-	2b-\	pa-
2C/	-nią-	2g/	-nią-	2cc\	-nią-
=18	=18	=18	=18	=18	=18
1D	-te-	1f#	-te-	1a	-te-
=19	=19	=19	=19	=19	=19
1GG	-czko.	1g	-czko.	1g	-czko.
=20	=20	=20	=20	=20	=20
4GG/	Wi-	4b-\	Wi-	4g/	Wi-
4GG/	-taj	4b-\	-taj	4g/	-taj
4FF/	mi-	4cc\	mi-	4a/	mi-
4FF/	-łe	4cc\	-łe	4a/	-łe
=21	=21	=21	=21	=21	=21
4BB-/	dzie-	4dd\	dzie-	4b-\	dzie-
8BB-/L	-cią-	4dd\	-cią-	4b-\	-cią-
8AA/J	.	.	.	.	.
4FF/	-te-	4cc\	-te-	4a/	-te-
4FF/	-czko	4cc\	-czko	4a/	-czko
=22	=22	=22	=22	=22	=22
4GG/	wi-	4b-\	wi-	4g/	wi-
4GG/	-taj	4b-\	-taj	4g/	-taj
4FF/	wdzię-	4cc\	wdzię-	4a/	wdzię-
4FF/	-czne	4cc\	-czne	4a/	-czne
=23	=23	=23	=23	=23	=23
4BB-/	pa-	4dd\	pa-	4b-\	pa-
8D\L	-nią-	4dd\	-nią-	4b-\	-nią-
8E\J	.	.	.	.	.
4F\	-te-	4cc\	-te-	4a/	-te-
4F\	-czko	4cc\	-czko	4a/	-czko
=24	=24	=24	=24	=24	=24
!!linebreak:original
2G\	pa-	2b-\	pa-	2b-\	pa-
2C/	-nią-	[2g/	-nią-	2cc\	-nią-
=25	=25	=25	=25	=25	=25
1D	-te-	2g/]	.	1a	-te-
.	.	2f#/	-te-	.	.
=26	=26	=26	=26	=26	=26
[1GG	-czko.	[1g	-czko.	[1g	-czko.
=27	=27	=27	=27	=27	=27
1GG]	.	1g]	.	1g]	.
==	==	==	==	==	==
*-	*-	*-	*-	*-	*-
!!!GTL: Hymnbook E
!!!EFL: 32/117
!!!YEM: Creative Commons CC/BY/NC/SA 4.0
!!!ENC: Marcin Konik
!!!END: 
!!!EED: Marcin Konik
!!!EEV: 
!!!ONB: Translated from MusicXML and edited by Marcin Konik
!!!CharacterEncoding: utf-8
!!!RDF**kern: l=long note in original notation
!!!RDF**kern: i=editorial accidental
!!muse2ps: z14jc180F
